X:1
T:Title
%%score { ( 1 3 ) | ( 2 4 ) }
L:1/8
M:6/8
K:Db
V:1 treble nm="Grand Piano"
V:3 treble 
V:2 bass 
V:4 bass 
V:1
 z3 z2[Q:1/4=90] F | F>FF FGA | A3 G2 A | c>BA [CG][CA][CB] |[M:5/8] [DF]-[DF]- [DF]3 | %5
[M:1/8] [FA] |[M:3/4] [Fd]>F FF GA | c3 B2 B | A>B G [CF]2 [CE] |[M:5/8] D-D- D3 |[M:3/16] D3/2 | %11
[M:3/4] F<[FA] [Fd][_Fc] [FB]>[Fc] | [FB]3 [FA]2 [FA] | =G<F Ed- d/G/G | A6 |[M:1/8] A/A/ | %16
[M:3/4] [Fd]>[Fd] [Fd][Af]- [Af]/[Ae]/[Ad] | e3 B2 B | A>B G [CF]2 [CE] | %19
[M:5/8] [A,D]-[A,D]- [A,D]3 |] %20
V:2
 z3 z2 [D,A,D] | [D,D]>[D,CD][D,B,D] [D,A,D][E,A,C][F,A,D] | [E,A,C]3 [E,A,C]2[K:treble] [A,CE] | %3
 [A,E]>[A,G][A,F][K:bass] [A,,E,][A,,A,][A,,A,] |[M:5/8] [D,A,]-[D,A,]- [D,A,]3 |[M:1/8] [D,D] | %6
[M:3/4] [D,A,]>[D,A,D] [D,A,D][D,A,D] [E,A,C][F,A,D] | [G,B,E]3[K:treble] [G,DG]2 [G,DG] | %8
 [A,DF]>[A,DF][K:bass] [E,B,E] [A,,A,]2 [A,,G,] |[M:5/8] [D,F,A,]-[D,F,A,]- [D,F,A,]3 | %10
[M:3/16] [D,F,]3/2 |[M:3/4] [D,A,D]<[D,D] [D,A,][D,A,] [D,=G,]>[D,G,] | [D,A,]3 [D,D]2 [D,D] | %13
 [E,B,D]<[E,A,D] [E,=G,D][E,B,E]- [E,B,E]/[E,DE]/[K:treble][B,DE] | [CE]2 D E3 | %15
[M:1/8] [A,CG]/[A,CG]/ |[M:3/4][K:bass] [D,A,]>[D,A,] [D,A,][D,A,]- [D,A,]/[E,A,]/[F,A,] | %17
 [G,B,G]3 [G,DG]2 [=G,D_F] | [A,DF]>[A,DF][K:bass] [E,B,E] [A,,A,]2 [A,,G,] | %19
[M:5/8] [D,F,]-[D,F,]- [D,F,]3 |] %20
V:3
 x6 | x6 | x6 | x6 |[M:5/8] x5 |[M:1/8] x |[M:3/4] x6 | x6 | x6 |[M:5/8] x5 |[M:3/16] x3/2 | %11
[M:3/4] x6 | x6 | x6 | z2 F G3 |[M:1/8] x |[M:3/4] x6 | x6 | x6 |[M:5/8] x5 |] %20
V:4
 x6 | x6 | x5[K:treble] x | x3[K:bass] x3 |[M:5/8] x5 |[M:1/8] x |[M:3/4] x6 | x3[K:treble] x3 | %8
 x2[K:bass] x4 |[M:5/8] x5 |[M:3/16] x3/2 |[M:3/4] x6 | x6 | x5[K:treble] x | A,6 |[M:1/8] x | %16
[M:3/4][K:bass] x6 | x6 | x2[K:bass] x4 |[M:5/8] x5 |] %20

